icons/evolvere-blue-folders-flat-vivid-dark-fallback/apps/64/menu-editor.svg

<?xml version="1.0" encoding="UTF-8" standalone="no"?>
<!-- Created with Inkscape (http://www.inkscape.org/) -->

<svg
   xmlns:dc="http://purl.org/dc/elements/1.1/"
   xmlns:cc="http://creativecommons.org/ns#"
   xmlns:rdf="http://www.w3.org/1999/02/22-rdf-syntax-ns#"
   xmlns:svg="http://www.w3.org/2000/svg"
   xmlns="http://www.w3.org/2000/svg"
   xmlns:sodipodi="http://sodipodi.sourceforge.net/DTD/sodipodi-0.dtd"
   xmlns:inkscape="http://www.inkscape.org/namespaces/inkscape"
   width="64"
   height="64"
   id="svg13094"
   version="1.1"
   inkscape:version="0.48.4 r9939"
   sodipodi:docname="menu-editor.svg">
  <sodipodi:namedview
     id="base"
     pagecolor="#ffffff"
     bordercolor="#666666"
     borderopacity="1.0"
     inkscape:pageopacity="0"
     inkscape:pageshadow="2"
     inkscape:zoom="11.313709"
     inkscape:cx="35.596521"
     inkscape:cy="27.413641"
     inkscape:document-units="px"
     inkscape:current-layer="g3052"
     showgrid="false"
     inkscape:snap-bbox="true"
     inkscape:bbox-paths="true"
     inkscape:bbox-nodes="true"
     inkscape:snap-bbox-edge-midpoints="true"
     inkscape:snap-bbox-midpoints="true"
     inkscape:object-paths="true"
     inkscape:snap-intersection-paths="true"
     inkscape:object-nodes="true"
     inkscape:snap-smooth-nodes="true"
     inkscape:snap-midpoints="true"
     inkscape:snap-object-midpoints="true"
     inkscape:snap-center="true"
     showguides="false"
     inkscape:guide-bbox="true"
     inkscape:window-width="1920"
     inkscape:window-height="1025"
     inkscape:window-x="-2"
     inkscape:window-y="32"
     inkscape:window-maximized="1"
     inkscape:snap-global="true"
     fit-margin-top="0"
     fit-margin-left="0"
     fit-margin-right="0"
     fit-margin-bottom="0"
     showborder="true"
     inkscape:showpageshadow="false"
     inkscape:snap-page="true">
    <inkscape:grid
       type="xygrid"
       id="grid3075"
       empspacing="5"
       visible="true"
       enabled="true"
       snapvisiblegridlinesonly="true"
       originx="1.6362304e-08px"
       originy="18px" />
    <sodipodi:guide
       orientation="0,1"
       position="-11,30"
       id="guide9148" />
    <sodipodi:guide
       orientation="1,0"
       position="32,70"
       id="guide9150" />
  </sodipodi:namedview>
  <defs
     id="defs13096" />
  <metadata
     id="metadata13099">
    <rdf:RDF>
      <cc:Work
         rdf:about="">
        <dc:format>image/svg+xml</dc:format>
        <dc:type
           rdf:resource="http://purl.org/dc/dcmitype/StillImage" />
        <dc:title />
      </cc:Work>
    </rdf:RDF>
  </metadata>
  <path
     id="path6538"
     d="m 0,4 0,30 0,28 2,2 30,0 30,0 2,-2 L 64,34 64,4 32,4 0,4 z"
     style="color:#000000;fill:#3080db;fill-opacity:1;fill-rule:nonzero;stroke:none;stroke-width:2.28571415000000000;marker:none;visibility:visible;display:inline;overflow:visible;enable-background:accumulate"
     inkscape:connector-curvature="0" />
  <path
     inkscape:connector-curvature="0"
     style="color:#000000;fill:#66b9ff;fill-opacity:1;fill-rule:nonzero;stroke:none;marker:none;visibility:visible;display:inline;overflow:visible;enable-background:accumulate"
     d="M 2,0 0,1 0,4 19.5625,4 39.125,4 64,4 64,1 62,0 39.125,0 19.5625,0 2,0 z"
     id="path6688" />
  <path
     d="M 64,6 62,4 64,3 z"
     id="path3028"
     style="fill:#4899eb;fill-opacity:1"
     inkscape:connector-curvature="0" />
  <g
     id="g3043"
     inkscape:export-filename="folder.png"
     inkscape:export-xdpi="90"
     inkscape:export-ydpi="90"
     transform="translate(-0.62500009,0.082283)" />
  <g
     id="scalable"
     transform="matrix(1.0385892,0,0,1.0385892,1214.7222,1878.8121)"
     inkscape:label="#g3701"
     style="fill:#ffffff" />
  <path
     inkscape:connector-curvature="0"
     style="fill:#8ccaff;fill-opacity:1;fill-rule:nonzero"
     d="M 0,3 0,6 2,4 z"
     id="path4298"
     sodipodi:nodetypes="cccc" />
  <g
     id="g3052">
    <g
       id="g3889" />
    <path
       sodipodi:nodetypes="ccccc"
       inkscape:connector-curvature="0"
       id="rect3804"
       d="m 7,17 33,0 0,40 -33,0 z"
       style="color:#000000;fill:#dfe0e6;fill-opacity:1;fill-rule:nonzero;stroke:none;stroke-width:0.14078191000000001;marker:none;visibility:visible;display:inline;overflow:visible;enable-background:accumulate" />
    <rect
       style="color:#000000;fill:#dfe0e6;fill-opacity:1;fill-rule:nonzero;stroke:none;stroke-width:0.14078191000000001;marker:none;visibility:visible;display:inline;overflow:visible;enable-background:accumulate"
       id="rect3806"
       width="64"
       height="9"
       x="1.6362304e-08"
       y="9" />
    <path
       sodipodi:nodetypes="scccccccsccscscccccccscc"
       inkscape:connector-curvature="0"
       id="path3048"
       d="m 13,20.06078 c -0.75399,-3.9e-5 -1.438774,0.308864 -1.934193,0.801117 l -0.17862,0.178621 -0.569391,-0.535863 0,1.657881 1.657919,0 -0.535902,-0.569391 0.178621,-0.178621 C 11.969463,21.057985 12.4598,20.84228 13,20.84228 c 1.079072,0 1.95385,0.874778 1.95385,1.953849 l 0.7815,0 C 15.735389,21.285413 14.510717,20.060741 13,20.06078 z m -2.735349,2.735349 c -3.9e-5,1.510717 1.224633,2.735389 2.735349,2.73535 0.753991,3.9e-5 1.438815,-0.308904 1.934233,-0.801157 l 0.178621,-0.17862 0.569391,0.535862 0,-1.657918 -1.657881,0 0.535863,0.569429 -0.178621,0.178621 C 14.030617,24.534195 13.5402,24.749979 13,24.749979 c -1.079071,0 -1.953848,-0.874778 -1.953848,-1.95385 z"
       style="fill:#434a54;fill-opacity:0.6745098;fill-rule:nonzero;stroke:none" />
    <rect
       y="27"
       x="7"
       height="9"
       width="33"
       id="rect4332"
       style="color:#000000;fill:#000000;fill-opacity:0.13440861;fill-rule:nonzero;stroke:none;stroke-width:1;marker:none;visibility:visible;display:inline;overflow:visible;enable-background:accumulate" />
    <path
       id="path12179"
       d="m 14.445382,28.592264 -1.806731,4.336155 c 0,-0.257409 -0.533768,-0.722693 -1.222621,-0.722693 -0.688853,0 -1.306803,0.48874 -1.306803,1.08404 0,0.595301 0.604388,1.084038 1.306803,1.084038 0.702416,0 1.395848,-0.361345 1.705227,-1.084038 l 1.001175,-2.529424 c 0.684297,0 2.239849,1.084038 -0.03839,2.529424 l 0.722692,0 c 0.531861,-0.354575 1.08404,-0.864482 1.08404,-1.806732 0,-0.780445 -0.89998,-1.6159 -1.08404,-2.168077 l 0,-0.722693 z"
       style="fill:#434a54;fill-opacity:0.6745098;fill-rule:nonzero"
       inkscape:connector-curvature="0" />
    <path
       id="rect3036"
       d="m 9.873842,37.434586 0,2.735389 2.735389,0 0,-2.735389 -2.735389,0 z m 3.516928,0 0,2.735389 2.735389,0 0,-2.735389 -2.735389,0 z m -2.735388,0.78154 0.39077,0 0.390769,0 0.39077,0 0,0.39077 0,0.39077 0,0.390769 -0.39077,0 -0.390769,0 -0.39077,0 0,-0.390769 0,-0.39077 0,-0.39077 z m 3.907698,0 0.390769,0 0,0.39077 0.390771,0 0,0.39077 -0.390771,0 -0.390769,0 0,0.390769 -0.39077,0 0,-0.390769 0.39077,0 0,-0.39077 0,-0.39077 z m -3.516928,0.39077 0,0.39077 0.390769,0 0,-0.39077 -0.390769,0 z m -1.17231,2.344618 0,2.735389 2.735389,0 0,-2.735389 -2.735389,0 z m 3.516928,0 0,2.735389 2.735389,0 0,-2.735389 -2.735389,0 z m -2.735388,0.781541 0.39077,0 0,0.390769 0.390769,0 0,-0.390769 0.39077,0 0,0.390769 -0.39077,0 0,0.39077 0.39077,0 0,0.390769 -0.39077,0 0,-0.390769 -0.390769,0 0,0.390769 -0.39077,0 0,-0.390769 0.39077,0 0,-0.39077 -0.39077,0 0,-0.390769 z m 3.516928,0.390769 0.39077,0 0.390769,0 0.390771,0 0,0.39077 0,0.390769 -0.390771,0 0,-0.390769 -0.390769,0 0,0.390769 -0.39077,0 0,-0.390769 0,-0.39077 z"
       style="color:#000000;fill:#434a54;fill-opacity:0.6745098;fill-rule:nonzero;stroke:none;stroke-width:2.28571415;marker:none;visibility:visible;display:inline;overflow:visible;enable-background:accumulate"
       inkscape:connector-curvature="0" />
    <path
       sodipodi:nodetypes="cccccccccccccccccccccccccccccccccccccccccccccccccccccccc"
       inkscape:connector-curvature="0"
       id="rect3023"
       d="m 10.777497,46.747685 0.78154,0.78154 -0.78154,0.781539 -0.512885,0 0,4.689236 5.470777,0 0,-4.689236 0,-0.268654 -0.268654,0.268654 -0.635001,0 0.647213,-0.647213 0.146538,-0.134326 -0.146538,-0.134328 -0.647213,-0.647212 -0.537308,0 0.781539,0.78154 -0.781539,0.781539 -0.635001,0 0.647212,-0.647213 0.146539,-0.134326 -0.146539,-0.134328 -0.647212,-0.647212 -0.537309,0 0.78154,0.78154 -0.78154,0.781539 -0.635001,0 0.647213,-0.647213 0.146538,-0.134326 -0.146538,-0.134328 -0.647213,-0.647212 -0.537308,0 0.781539,0.78154 -0.781539,0.781539 -0.635001,0 0.647212,-0.647213 0.146539,-0.134326 -0.146539,-0.134328 -0.647212,-0.647212 z m 4.689238,0 0.268654,0.268654 0,-0.268654 z m -5.202123,0.122115 0,0.537309 0.122116,0.122116 -0.122116,0.122115 0,0.537308 0.525097,-0.525097 0.146539,-0.134326 -0.146539,-0.134328 z m 1.953849,2.613272 1.953849,1.172309 -1.953849,1.17231 z"
       style="color:#000000;fill:#434a55;fill-opacity:0.6745098;fill-rule:nonzero;stroke:none;stroke-width:4;marker:none;visibility:visible;display:inline;overflow:visible;enable-background:accumulate" />
    <path
       id="rect3783"
       d="M 13.9375 11 L 13.9375 12.5625 L 15.5 12.5625 L 15.5 11 L 13.9375 11 z M 10.8125 11.3125 L 10.8125 12.25 L 11.75 12.25 L 11.75 11.3125 L 10.8125 11.3125 z M 12.375 11.3125 L 12.375 12.5625 L 13.625 12.5625 L 13.625 11.3125 L 12.375 11.3125 z M 10.8125 12.875 L 10.8125 14.125 L 12.0625 14.125 L 12.0625 12.875 L 10.8125 12.875 z M 12.375 12.875 L 12.375 14.125 L 13.625 14.125 L 13.625 12.875 L 12.375 12.875 z M 13.9375 12.875 L 13.9375 14.125 L 15.1875 14.125 L 15.1875 12.875 L 13.9375 12.875 z M 10.5 14.4375 L 10.5 16 L 12.0625 16 L 12.0625 14.4375 L 10.5 14.4375 z M 12.375 14.4375 L 12.375 15.6875 L 13.625 15.6875 L 13.625 14.4375 L 12.375 14.4375 z M 14.25 14.75 L 14.25 15.6875 L 15.1875 15.6875 L 15.1875 14.75 L 14.25 14.75 z "
       style="fill:#434a54;fill-opacity:0.6745098;fill-rule:nonzero;stroke:none" />
    <text
       xml:space="preserve"
       style="font-size:3px;font-style:normal;font-variant:normal;font-weight:bold;font-stretch:normal;line-height:125%;letter-spacing:0px;word-spacing:0px;color:#000000;fill:#434a54;fill-opacity:0.88888891;fill-rule:nonzero;stroke:none;marker:none;visibility:visible;display:inline;overflow:visible;enable-background:accumulate;font-family:Oxygen;-inkscape-font-specification:Oxygen Bold"
       x="18.004395"
       y="14.529297"
       id="text4096"
       sodipodi:linespacing="125%"><tspan
         sodipodi:role="line"
         id="tspan4098"
         x="18.004395"
         y="14.529297">Applications</tspan></text>
    <text
       xml:space="preserve"
       style="font-size:3px;font-style:normal;font-variant:normal;font-weight:bold;font-stretch:normal;line-height:125%;letter-spacing:0px;word-spacing:0px;color:#000000;fill:#434a54;fill-opacity:0.88888891;fill-rule:nonzero;stroke:none;marker:none;visibility:visible;display:inline;overflow:visible;enable-background:accumulate;font-family:Oxygen;-inkscape-font-specification:Oxygen Bold"
       x="18.004395"
       y="23.779297"
       id="text4100"
       sodipodi:linespacing="125%"><tspan
         sodipodi:role="line"
         id="tspan4102"
         x="18.004395"
         y="23.779297">Updates</tspan></text>
    <text
       xml:space="preserve"
       style="font-size:3px;font-style:normal;font-variant:normal;font-weight:bold;font-stretch:normal;line-height:125%;letter-spacing:0px;word-spacing:0px;color:#000000;fill:#434a54;fill-opacity:0.88888891;fill-rule:nonzero;stroke:none;marker:none;visibility:visible;display:inline;overflow:visible;enable-background:accumulate;font-family:Oxygen;-inkscape-font-specification:Oxygen Bold"
       x="18.004395"
       y="32.774902"
       id="text4104"
       sodipodi:linespacing="125%"><tspan
         sodipodi:role="line"
         id="tspan4106"
         x="18.004395"
         y="32.774902">Music player</tspan></text>
    <text
       xml:space="preserve"
       style="font-size:3px;font-style:normal;font-variant:normal;font-weight:bold;font-stretch:normal;line-height:125%;letter-spacing:0px;word-spacing:0px;color:#000000;fill:#434a54;fill-opacity:0.88888891;fill-rule:nonzero;stroke:none;marker:none;visibility:visible;display:inline;overflow:visible;enable-background:accumulate;font-family:Oxygen;-inkscape-font-specification:Oxygen Bold"
       x="18.004395"
       y="41.779297"
       id="text4108"
       sodipodi:linespacing="125%"><tspan
         sodipodi:role="line"
         id="tspan4110"
         x="18.004395"
         y="41.779297">Install apss</tspan></text>
    <text
       sodipodi:linespacing="125%"
       id="text4075"
       y="50.774902"
       x="18.004395"
       style="font-size:3px;font-style:normal;font-variant:normal;font-weight:bold;font-stretch:normal;line-height:125%;letter-spacing:0px;word-spacing:0px;color:#000000;fill:#434a54;fill-opacity:0.88888891;fill-rule:nonzero;stroke:none;marker:none;visibility:visible;display:inline;overflow:visible;enable-background:accumulate;font-family:Oxygen;-inkscape-font-specification:Oxygen Bold"
       xml:space="preserve"><tspan
         y="50.774902"
         x="18.004395"
         id="tspan4077"
         sodipodi:role="line">Video player</tspan></text>
  </g>
  <path
     style="color:#000000;fill:#00233f;fill-opacity:0.0957923;fill-rule:nonzero;stroke:none;stroke-width:1;marker:none;visibility:visible;display:inline;overflow:visible;enable-background:accumulate"
     d="m 64,37.15625 -14.53125,13.4375 -3.0625,5.5625 -1.53125,2.78125 c 0,0 -0.235286,0.433332 0,0.6875 0.235286,0.254168 0.6875,0.03125 0.6875,0.03125 l 2.875,-1.3125 5.78125,-2.625 9.78125,-9.0625 0,-9.5 z"
     id="rect4022-2-0"
     inkscape:connector-curvature="0" />
  <g
     id="g3941"
     transform="matrix(0.96746589,-0.25300149,0.25300149,0.96746589,-5.0876997,16.98325)">
    <g
       id="g3203-5"
       transform="matrix(0.97372648,0.22772077,-0.22772077,0.97372648,8.6090537,-3.2477196)">
      <g
         id="g4020-3"
         transform="matrix(0.96592583,0.25881905,-0.25881905,0.96592583,13.347475,-25.868108)">
        <path
           inkscape:connector-curvature="0"
           id="path4028-7"
           d="M 43,56 43,54.099512 50,53.319513 50,56 l -2,6 -3,0 z"
           style="fill:#e9dab7;fill-opacity:1;stroke:none"
           sodipodi:nodetypes="ccccccc" />
        <path
           inkscape:connector-curvature="0"
           style="color:#000000;fill:#c48b29;fill-opacity:1;fill-rule:nonzero;stroke:none;stroke-width:1;marker:none;visibility:visible;display:inline;overflow:visible;enable-background:accumulate"
           d="M 50.15625,17.3125 42.1875,51.40625 c 0.18865,-0.806661 0.774726,-1.375767 1.3125,-1.25 0.537774,0.125767 0.81365,0.912089 0.625,1.71875 l 8,-34.09375 -1.96875,-0.46875 z"
           transform="matrix(0.97372647,-0.22772079,0.22772079,0.97372647,-4.7897114,15.554036)"
           id="rect4022-4-0" />
        <path
           inkscape:connector-curvature="0"
           style="color:#000000;fill:#f4d44d;fill-opacity:1;fill-rule:nonzero;stroke:none;stroke-width:1;marker:none;visibility:visible;display:inline;overflow:visible;enable-background:accumulate"
           d="M 45.28125,16.1875 37.3125,50.28125 c 0.18865,-0.806661 0.774726,-1.375767 1.3125,-1.25 0.537774,0.125767 0.8449,0.880839 0.65625,1.6875 L 47.25,16.65625 45.28125,16.1875 z"
           transform="matrix(0.97372647,-0.22772079,0.22772079,0.97372647,-4.7897114,15.554036)"
           id="rect4024-5" />
        <path
           inkscape:connector-curvature="0"
           style="color:#000000;fill:#e4ab35;fill-opacity:1;fill-rule:nonzero;stroke:none;stroke-width:1;marker:none;visibility:visible;display:inline;overflow:visible;enable-background:accumulate"
           d="m 47.25,16.65625 -7.96875,34.0625 c 0.18865,-0.806661 0.974589,-1.31365 1.78125,-1.125 0.806661,0.18865 1.31365,1.005839 1.125,1.8125 L 50.15625,17.3125 47.25,16.65625 z"
           transform="matrix(0.97372647,-0.22772079,0.22772079,0.97372647,-4.7897114,15.554036)"
           id="rect4026-9" />
        <path
           sodipodi:nodetypes="cczcccccccc"
           inkscape:connector-curvature="0"
           id="path4036-7"
           d="m 45,62 1,3 c 0,0 0.153646,0.5 0.5,0.5 0.346354,0 0.5,-0.5 0.5,-0.5 l 1,-3 c -0.06889,-0.219577 -0.201841,-0.161553 -0.358684,0 L 47.331957,61.723786 46.735336,62 45.906695,61.436524 45.497899,62 C 45.31598,61.877698 45.10011,61.4951 45,62 z"
           style="fill:#535353;fill-opacity:1;stroke:none" />
        <rect
           ry="2"
           rx="2"
           y="15"
           x="43"
           height="7"
           width="7"
           id="rect4038-6"
           style="color:#000000;fill:#c84949;fill-opacity:1;fill-rule:nonzero;stroke:none;stroke-width:1;marker:none;visibility:visible;display:inline;overflow:visible;enable-background:accumulate" />
        <rect
           y="20"
           x="43"
           height="3"
           width="7"
           id="rect4040-0"
           style="color:#000000;fill:#535353;fill-opacity:1;fill-rule:nonzero;stroke:none;stroke-width:1;marker:none;visibility:visible;display:inline;overflow:visible;enable-background:accumulate" />
      </g>
    </g>
  </g>
</svg>

<svg xmlns="http://www.w3.org/2000/svg" viewBox="0 0 64 64"><g color="#000"><path d="m0 4v30 28l2 2h30 30l2-2v-28-30h-32-32" fill="#3080db"/><path d="m2 0l-2 1v3h19.563 19.563 24.875v-3l-2-1h-22.875-19.563-17.563" fill="#66b9ff"/></g><path d="m64 6l-2-2 2-1z" fill="#4899eb"/><path d="m0 3v3l2-2z" fill="#8ccaff"/><g fill="#dfe0e6" color="#000"><path d="m7 17h33v40h-33z"/><path d="m0 9h64v9h-64z"/></g><path d="m13 20.06c-.754 0-1.439.309-1.934.801l-.179.179-.569-.536v1.658h1.658l-.536-.569.179-.179c.351-.357.841-.572 1.382-.572 1.079 0 1.954.875 1.954 1.954h.781c0-1.511-1.225-2.735-2.735-2.735m-2.735 2.735c0 1.511 1.225 2.735 2.735 2.735.754 0 1.439-.309 1.934-.801l.179-.179.569.536v-1.658h-1.658l.536.569-.179.179c-.351.356-.841.572-1.382.572-1.079 0-1.954-.875-1.954-1.954z" fill="#434a54" fill-opacity=".675"/><path fill-opacity=".134" color="#000" d="m7 27h33v9h-33z"/><g fill-opacity=".675"><g fill="#434a54"><path d="m14.445 28.592l-1.807 4.336c0-.257-.534-.723-1.223-.723-.689 0-1.307.489-1.307 1.084 0 .595.604 1.084 1.307 1.084.702 0 1.396-.361 1.705-1.084l1-2.529c.684 0 2.24 1.084-.038 2.529h.723c.532-.355 1.084-.864 1.084-1.807 0-.78-.9-1.616-1.084-2.168v-.723z"/><path d="m9.874 37.435v2.735h2.735v-2.735h-2.735m3.517 0v2.735h2.735v-2.735h-2.735m-2.735.782h.391.391.391v.391.391.391h-.391-.391-.391v-.391-.391-.391m3.908 0h.391v.391h.391v.391h-.391-.391v.391h-.391v-.391h.391v-.391-.391m-3.517.391v.391h.391v-.391h-.391m-1.172 2.345v2.735h2.735v-2.735h-2.735m3.517 0v2.735h2.735v-2.735h-2.735m-2.735.782h.391v.391h.391v-.391h.391v.391h-.391v.391h.391v.391h-.391v-.391h-.391v.391h-.391v-.391h.391v-.391h-.391v-.391m3.517.391h.391.391.391v.391.391h-.391v-.391h-.391v.391h-.391v-.391-.391" color="#000"/></g><path d="m10.777 46.748l.782.782-.782.782h-.513v4.689h5.471v-4.689-.269l-.269.269h-.635l.647-.647.147-.134-.147-.134-.647-.647h-.537l.782.782-.782.782h-.635l.647-.647.147-.134-.147-.134-.647-.647h-.537l.782.782-.782.782h-.635l.647-.647.147-.134-.147-.134-.647-.647h-.537l.782.782-.782.782h-.635l.647-.647.147-.134-.147-.134-.647-.647zm4.689 0l.269.269v-.269zm-5.202.122v.537l.122.122-.122.122v.537l.525-.525.147-.134-.147-.134zm1.954 2.613l1.954 1.172-1.954 1.172z" fill="#434a55" color="#000"/><path d="m13.938 11v1.563h1.563v-1.563h-1.563m-3.125.313v.938h.938v-.938h-.938m1.563 0v1.25h1.25v-1.25h-1.25m-1.563 1.563v1.25h1.25v-1.25h-1.25m1.563 0v1.25h1.25v-1.25h-1.25m1.563 0v1.25h1.25v-1.25h-1.25m-3.438 1.563v1.563h1.563v-1.563h-1.563m1.875 0v1.25h1.25v-1.25h-1.25m1.875.313v.938h.938v-.938h-.938" fill="#434a54"/></g><g color="#000"><g font-family="Oxygen" fill="#434a54" word-spacing="0" fill-opacity=".889" line-height="125%" font-weight="bold" letter-spacing="0" font-size="3"><text x="18" y="14.529"><tspan x="18" y="14.529">Applications</tspan></text><text x="18" y="23.779"><tspan x="18" y="23.779">Updates</tspan></text><text x="18" y="32.775"><tspan x="18" y="32.775">Music player</tspan></text><text x="18" y="41.779"><tspan x="18" y="41.779">Install apss</tspan></text><text y="50.775" x="18"><tspan y="50.775" x="18">Video player</tspan></text></g><path d="m64 37.16l-14.531 13.438-3.063 5.563-1.531 2.781c0 0-.235.433 0 .688.235.254.688.031.688.031l2.875-1.313 5.781-2.625 9.781-9.06v-9.5" fill="#00233f" fill-opacity=".096"/></g><g transform="matrix(.97234.23358-.23358.97234 15.09-14.544)"><path d="m43 56v-1.9l7-.78v2.68l-2 6h-3z" fill="#e9dab7"/><g color="#000" transform="matrix(.97373-.22772.22772.97373-4.79 15.554)"><path d="m50.16 17.313l-7.969 34.09c.189-.807.775-1.376 1.313-1.25.538.126.814.912.625 1.719l8-34.09-1.969-.469" fill="#c48b29"/><path d="m45.28 16.188l-7.969 34.09c.189-.807.775-1.376 1.313-1.25.538.126.845.881.656 1.688l7.969-34.06-1.969-.469" fill="#f4d44d"/><path d="m47.25 16.656l-7.969 34.06c.189-.807.975-1.314 1.781-1.125.807.189 1.314 1.01 1.125 1.813l7.969-34.09-2.906-.656" fill="#e4ab35"/></g><path d="m45 62l1 3c0 0 .154.5.5.5.346 0 .5-.5.5-.5l1-3c-.069-.22-.202-.162-.359 0l-.309-.276-.597.276-.829-.563-.409.563c-.182-.122-.398-.505-.498 0" fill="#535353"/><g color="#000"><rect rx="2" y="15" x="43" height="7" width="7" fill="#c84949"/><path fill="#535353" d="m43 20h7v3h-7z"/></g></g></svg>
